X: 2392
M: C
L: 1/8
K: Bb	% and Gm
|:\
dbca BgAf | GeFd EcDB | F2(GA) \
[1,3 BdcB | ABcd efga :|\
[2,4 BdcA | B2d2B2 :|
|:\
[1,3 G>AB>c d>cB>A | G>AB>c d>cA>^F :|\
[2,4 G>AB>c d>cA>^F | G>BA>^F G2 :|


